X:1
T:The Morning Watch, LM
T:The Morning Watch, LM
T:Carl Fowler Price, 1913
T:Public Domain Courtesy of the Cyber Hymnal™
C:Carl Fowler Price, 1913
Z:Public Domain
Z:Courtesy of the Cyber Hymnal™
%%score ( 1 2 ) ( 3 4 )
L:1/8
Q:1/4=135
M:4/4
K:Ab
V:1 treble 
V:2 treble 
V:3 bass 
V:4 bass 
V:1
 E2 | E4 F2 A2 | [DB]6 [DE]2 | E2 F2 A2 c2 | e6 [GB]2 | [Fd]4 [Ed]4 | [Ec]4 E4 | [DF]4 [FA]4 | %8
 A4 G2 E2 | E4 F2 A2 | [DB]6 E2 | [EA]2 [FB]2 c2 e2 | [Fd]6 [DF]2 | [Ec]4 [DB]4 | [CE]6 [EA]2 | %15
 [FA]4 [DB]4 | [CA]6 |] %17
V:2
 E2 | E4 =D4 | x8 | C4 E4 | A4 G2 x2 | x8 | x4 E4 | x8 | E6 E2 | E4 =D4 | x6 E2 | x4 _G4 | x8 | %13
 x8 | x8 | x8 | x6 |] %17
V:3
 [A,C]2 | [A,C]4 [A,_C]2 [F,A,]2 | (A,4 G,2) [G,B,]2 | A,4 [E,C]4 | D6 [E,D]2 | [F,A,]4 [G,B,]4 | %6
 [A,C]4 [C,A,]4 | [D,A,]4 [B,,D]4 | C4 B,2 [G,D]2 | [A,C]4 [A,B,]2 [F,A,]2 | (A,4 G,2) [G,D]2 | %11
 C2 D2 E2 C2 | [D,D]6 [D,A,]2 | [F,=A,]4 [B,,B,]4 | (B,4 A,2) [E,C]2 | [E,D]4 [E,G,]4 | %16
 [A,,E,A,]6 |] %17
V:4
 x2 | x8 | E,6 x2 | A,4 x4 | B,4 E,2 x2 | x8 | x8 | x8 | E,6 x2 | x8 | E,6 x2 | A,4 A,4 | x8 | x8 | %14
 E,6 x2 | x8 | x6 |] %17

